X: 05028
T: FLEUR DE LIS WALTZ
C: Bob McQuillen 14 Aug'80
B: Bob's Note Book 5 #_
%R: waltz
Z: 2021 John Chambers <jc:trillian.mit.edu>
M: 3/4
L: 1/8
K: D
[| A3 B AG | F2 A2 d2 | d3 e dc | B4 d2 | A3 B AG | F2 G2 A2 | B2 c2 d2 | e2 F2 G2 |\
|  A3 B AG | F2 A2 d2 | d3 e dc | B2 c2 d2 | AF D2 G2 | F2 A,2 E2 | D6- | "^fine"D6 |]
[| F3 G FE | D2 B,2 F2 | F2 C2 E2 | D6 | F3 G FE | D4 E2 | F6- | F6 |\
|  F3 G FE | D2 B,2 F2 | E2 C2 E2 | D6 | E2 E2 F2 |^G2 A2 B2 | "^D.C. al fine"A6- | A6 |]
%%begintext align
%% For many
%% friends and happy times at Camp
%% Fleur de Lis in Fitzwilliam, N.H.
%% With love from Uncle Bob. +++
%%endtext

%%sep 1 1 500

%%sep 1 1 500

